X:1
T:The Navvies (The Bold Navigators)
M:6/8
L:1/8
K:G
 D| D2 G FGA| ABA G2 B| c2 A B2 G| ADD D2 D| DGG F2 G| ABA G2 B| cAc B2 G|\
 ADD D2 d| d2 B cAA| BGG A2 D| G2 G ABc| B2 A G2||
